X:4
T:Asher
C:Rodney Miller
S:Bernie Waugh
R:Reel
M:4/4
L:1/8
K:D
|:\
"D"FEFA dcde|fded Bdef|"Em"gfed "F#m"fdad|"G"BdAF "A"E2FE|
"D"DEFA dcde|fded Bdef|"Em"gfed "G"fdad|1"A"AFEF "D"D3E:|2\
"A"cABc "D"d4||
K:F
|:\
"Dm"A,DDEF2DE|FEDCA,4|"Gm"EDEFG2G_A-|"Bb7"_A2GA GFDC|
"Dm"DDD FFF DE|FEDCA,4|"Gm"EDEF "Bb7"G2_A=A|"A7"GFDC "Dm"D4:|

